X: 26329
T: Men Of The West, The
R: waltz
M: 3/4
K: Gmajor
B,|E3 G>FE|E>GB c2e|B>GF E>F G/B/|C3 C2B,|
E3 G>FE|E<e d/B/ c2e|B>GE G2F|E3 E2:|
|:G/A/|B>cB B/c/ d2|de2 e>d c/B/|B>GF E>F G/B/|C3 C2B,|
B>cB B/c/ d2|de2 e>d c/B/|B>GE G2F|E3 E2:|

